image/kitchen-icon3.svg

<svg width="64" height="64" viewBox="0 0 64 64" fill="none" xmlns="http://www.w3.org/2000/svg">
<path d="M41.8823 55.5298V50.1965C41.8823 47.3675 40.7585 44.6544 38.7581 42.654C36.7577 40.6536 34.0446 39.5298 31.2157 39.5298H12.549C9.72002 39.5298 7.00691 40.6536 5.00652 42.654C3.00613 44.6544 1.88232 47.3675 1.88232 50.1965V55.5298" stroke="#E03D3B" stroke-width="3.76471" stroke-linecap="round" stroke-linejoin="round"/>
<path d="M21.8825 28.8623C27.7735 28.8623 32.5491 24.0866 32.5491 18.1956C32.5491 12.3045 27.7735 7.52881 21.8825 7.52881C15.9914 7.52881 11.2158 12.3045 11.2158 18.1956C11.2158 24.0866 15.9914 28.8623 21.8825 28.8623Z" stroke="#E03D3B" stroke-width="3.76471" stroke-linecap="round" stroke-linejoin="round"/>
<path d="M44.5493 28.8632L49.8826 34.1965L60.5493 23.5298" stroke="#E03D3B" stroke-width="3.76471" stroke-linecap="round" stroke-linejoin="round"/>
</svg>

<?xml version="1.0" encoding="UTF-8" standalone="no"?>
<svg width="64" xmlns="http://www.w3.org/2000/svg" fill="none" viewBox="0 0 64 64" height="64">
 <path stroke-linejoin="round" stroke="#E03D3B" stroke-width="3.7647" stroke-linecap="round" d="m41.882 55.53v-5.334c0-2.828-1.124-5.542-3.124-7.542s-4.713-3.124-7.542-3.124h-18.667c-2.829 0-5.5421 1.124-7.5425 3.124s-3.1242 4.714-3.1242 7.542v5.334"/>
 <path stroke-linejoin="round" stroke="#E03D3B" stroke-width="3.7647" stroke-linecap="round" d="m21.882 28.862c5.892 0 10.667-4.775 10.667-10.666 0-5.892-4.775-10.667-10.667-10.667-5.891-0.0002-10.666 4.775-10.666 10.667 0 5.891 4.775 10.666 10.666 10.666z"/>
 <path stroke-linejoin="round" stroke="#E03D3B" stroke-width="3.7647" stroke-linecap="round" d="m44.549 28.863l5.334 5.333 10.666-10.666"/>
</svg>
